X: 27263
T: Miss Stewart Of Grantully
R: reel
M: 4/4
K: Amixolydian
|:e|AAcA eAcA|GGBG BGBg|AAcA eAcA|Eaef cAA:|
B|Aa^ga eaca|Bgdg BGGB|Aa^ga eaca|faef cAAB|
Aa^ga eaca|Bgdg BGGB|AAcA dBcA|Eaef cAA||

